src/assets/close.svg

<svg width="18" height="18" fill="currentcolor" xmlns="http://www.w3.org/2000/svg"><path d="M14.4633 13.6618c.1056.1066.1649.2506.1649.4007s-.0593.2942-.1649.4008c-.1075.104-.2513.1621-.4008.1621-.1496 0-.2933-.0581-.4008-.1621L8.99999 9.79457 4.33827 14.4633c-.10751.104-.25122.1621-.40078.1621-.14956 0-.29326-.0581-.40078-.1621-.10563-.1066-.16488-.2507-.16488-.4008s.05925-.2941.16488-.4007l4.66875-4.66176-4.66875-4.66172c-.0897-.10929-.13554-.24804-.1286-.38926.00693-.14121.06615-.2748.16612-.37478.09998-.09997.23357-.15919.37478-.16612.14122-.00694.27997.0389.38926.1286l4.66172 4.66875 4.66171-4.66875c.1093-.0897.248-.13554.3893-.1286.1412.00693.2748.06615.3747.16612.1.09998.1592.23357.1662.37478.0069.14122-.0389.27997-.1286.38926L9.79452 9.00004l4.66878 4.66176Z"/></svg>

<svg width="18" height="18" viewBox="0 0 18 18" fill="currentcolor" xmlns="http://www.w3.org/2000/svg">
<path d="M14.4633 13.6618C14.5689 13.7684 14.6282 13.9124 14.6282 14.0625C14.6282 14.2126 14.5689 14.3567 14.4633 14.4633C14.3558 14.5673 14.212 14.6254 14.0625 14.6254C13.9129 14.6254 13.7692 14.5673 13.6617 14.4633L8.99999 9.79457L4.33827 14.4633C4.23076 14.5673 4.08705 14.6254 3.93749 14.6254C3.78793 14.6254 3.64423 14.5673 3.53671 14.4633C3.43108 14.3567 3.37183 14.2126 3.37183 14.0625C3.37183 13.9124 3.43108 13.7684 3.53671 13.6618L8.20546 9.00004L3.53671 4.33832C3.44701 4.22903 3.40117 4.09028 3.40811 3.94906C3.41504 3.80785 3.47426 3.67426 3.57423 3.57428C3.67421 3.47431 3.8078 3.41509 3.94901 3.40816C4.09023 3.40122 4.22898 3.44706 4.33827 3.53676L8.99999 8.20551L13.6617 3.53676C13.771 3.44706 13.9097 3.40122 14.051 3.40816C14.1922 3.41509 14.3258 3.47431 14.4257 3.57428C14.5257 3.67426 14.5849 3.80785 14.5919 3.94906C14.5988 4.09028 14.553 4.22903 14.4633 4.33832L9.79452 9.00004L14.4633 13.6618Z" />
</svg>
